assets/images/next.svg

<svg fill="none" height="28" viewBox="0 0 17 28" width="17" xmlns="http://www.w3.org/2000/svg"><path clip-rule="evenodd" d="m.649857.640704c.866473-.854272 2.271313-.854272 3.137783 0l11.83336 11.666696c.8665.8542.8665 2.2393 0 3.0936l-11.83336 11.6666c-.86647.8543-2.27131.8543-3.137783 0-.866476-.8542-.866476-2.2393 0-3.0936l10.264443-10.1198-10.264443-10.1199c-.866476-.85428-.866476-2.23932 0-3.093596z" fill="#e8e8e8" fill-rule="evenodd"/></svg>

<svg width="17" height="28" viewBox="0 0 17 28" fill="none" xmlns="http://www.w3.org/2000/svg">
<path fill-rule="evenodd" clip-rule="evenodd" d="M0.649857 0.640704C1.51633 -0.213568 2.92117 -0.213568 3.78764 0.640704L15.621 12.3074C16.4875 13.1616 16.4875 14.5467 15.621 15.401L3.78764 27.0676C2.92117 27.9219 1.51633 27.9219 0.649857 27.0676C-0.216619 26.2134 -0.216619 24.8283 0.649857 23.974L10.9143 13.8542L0.649857 3.7343C-0.216619 2.88002 -0.216619 1.49498 0.649857 0.640704Z" fill="#E8E8E8"/>
</svg>
